X:37
T:Greasy Coat
R:reel
M:4/4
K:G
"Am"c2A2G2A2|c2A2e4|c2A2G2A2|"G"EG3"Am"A4|
"Am"c2A2c2d2|"C"e3ge2d2|"Am"c2A2G2A2|"G"EG3"Am"A4:|
"Am"ABcde2f2|"G"g4g4|ABcde2g2|"Am"a2aga4|
"Am"ABcde2f2|"G"g4"Em"e3d|"C"c2A2"Em"G2A2|"G"EG3"Am"A4:|
